X:4600
T:Dutch Trot, The. WM.077
M:6/8
L:1/8
Q:127
S:Wm.Mittell's MS,New Romney,Kent,1799
R:Trot
O:England
A:Kent
N:Appears Later in key of Dma
D:
H:
Z:vmp.Chris Partington
K:C
c2ge2g|d2gB2d|c2af2d|edc BAG|!
c2ge2g|c2af2a|gfe dcB|d3d3:|!
|:efed2-e|d2ed3|efe d2e|f2-^fg3|!
cdcc2G|efee2c|agf edc|Bdc BAG:|]
